files/2024-06-05/svg/work/minecraft_education.svg

<?xml version="1.0" encoding="UTF-8"?>
<svg width="48" height="48" version="1.1" viewBox="0 0 48 48" xml:space="preserve" xmlns="http://www.w3.org/2000/svg"><path d="m19.401 9.75h-9.651v4.75m14.25 23.75h9.561m-14.16 0h4.599v-19m9.561-4.75v-4.75h-9.561v9.5h-4.599v-4.75m4.599-4.75h-4.599m0 4.75h-9.651v4.75h9.651v4.75m-9.651 0v14.25h9.651v-14.25h-9.651v-4.75m23.811-9.5h4.689v4.75h-4.689v23.75h4.689v-23.75m-28.75-9h29c2.216 0 4 1.784 4 4v29c0 2.216-1.784 4-4 4h-29c-2.216 0-4-1.784-4-4v-29c0-2.216 1.784-4 4-4z" fill="none" stroke="#fff" stroke-linecap="round" stroke-linejoin="round"/></svg>

<?xml version="1.0" encoding="UTF-8" standalone="no"?>
<!-- Created with Inkscape (http://www.inkscape.org/) -->

<svg
   width="48"
   height="48"
   viewBox="0 0 48 48"
   version="1.1"
   id="svg1"
   xml:space="preserve"
   inkscape:version="1.3.2 (091e20e, 2023-11-25, custom)"
   sodipodi:docname="minecraft_education.png"
   xmlns:inkscape="http://www.inkscape.org/namespaces/inkscape"
   xmlns:sodipodi="http://sodipodi.sourceforge.net/DTD/sodipodi-0.dtd"
   xmlns="http://www.w3.org/2000/svg"
   xmlns:svg="http://www.w3.org/2000/svg"><sodipodi:namedview
     id="namedview1"
     pagecolor="#505050"
     bordercolor="#eeeeee"
     borderopacity="1"
     inkscape:showpageshadow="0"
     inkscape:pageopacity="0"
     inkscape:pagecheckerboard="0"
     inkscape:deskcolor="#505050"
     inkscape:document-units="px"
     inkscape:zoom="3.170932"
     inkscape:cx="-23.652352"
     inkscape:cy="34.847799"
     inkscape:window-width="1920"
     inkscape:window-height="1057"
     inkscape:window-x="-8"
     inkscape:window-y="-8"
     inkscape:window-maximized="1"
     inkscape:current-layer="svg1" /><defs
     id="defs1" /><path
     id="rect2"
     style="fill:none;stroke:#ffffff;stroke-linecap:round;stroke-linejoin:round;stroke-opacity:1"
     d="M 19.401,9.75 H 9.75 V 14.5 M 24,38.25 h 9.561 m -14.16,0 H 24 v -19 M 33.561,14.5 V 9.75 H 24 v 9.5 H 19.401 V 14.5 M 24,9.75 h -4.599 m 0,4.75 H 9.75 v 4.75 h 9.651 V 24 M 9.75,24 v 14.25 h 9.651 V 24 H 9.75 v -4.75 0 M 33.561,9.75 H 38.25 V 14.5 H 33.561 V 38.25 H 38.25 V 14.5 M 9.5,5.5 h 29 c 2.216,0 4,1.784 4,4 v 29 c 0,2.216 -1.784,4 -4,4 h -29 c -2.216,0 -4,-1.784 -4,-4 v -29 c 0,-2.216 1.784,-4 4,-4 z" /></svg>
